static/logos/jira-wordmark-color.svg

<svg width="100" height="14" viewBox="0 0 100 14" fill="none" xmlns="http://www.w3.org/2000/svg">
<g clip-path="url(#clip0_1_2278)">
<path d="M60.2504 1.12169C58.6487 1.12169 57.8702 2.06556 57.8702 3.45585V4.27232H56.6581V5.46215H57.875V11.7524H59.1313V5.46215H61.0609V4.27232H59.1313L59.1196 3.49329C59.1196 2.82021 59.5174 2.35593 60.3095 2.35593C60.5808 2.35484 60.8511 2.38039 61.1171 2.43103V1.24078C60.8352 1.16037 60.5434 1.12007 60.2504 1.12169ZM22.673 1.39921C22.462 1.4069 22.2604 1.49389 22.1102 1.6448C21.9377 1.81658 21.8489 2.05546 21.8658 2.29818C21.8658 2.61916 22.0366 2.91603 22.3147 3.07616C22.5924 3.23699 22.935 3.23699 23.2126 3.07616C23.4902 2.91603 23.6618 2.61916 23.6612 2.29818C23.6786 2.05546 23.5897 1.81658 23.4174 1.6448C23.2455 1.47232 23.0065 1.38344 22.7638 1.40091C22.7334 1.39874 22.7031 1.3981 22.673 1.39918V1.39921ZM44.1303 1.77488C41.84 1.77488 40.6738 2.90702 40.6738 4.4369C40.6738 6.05232 41.665 6.81528 43.8754 7.35421C45.7452 7.80312 46.284 8.26533 46.284 9.13417C46.284 10.003 45.7245 10.5863 44.2438 10.5863C42.9435 10.5863 41.5374 10.2425 40.6247 9.76346V11.139C41.3879 11.5282 42.2702 11.902 44.1709 11.902C46.6103 11.902 47.6273 10.7492 47.6373 9.04427C47.6373 7.27276 46.4697 6.60636 44.3905 6.08232C42.6564 5.64927 42.0272 5.2444 42.0272 4.4369C42.0272 3.53949 42.7906 3.09055 44.0772 3.09055C45.1454 3.06455 46.2016 3.32252 47.1375 3.8387V2.49194C46.4643 2.11492 45.5518 1.77488 44.1303 1.77488ZM18.9642 1.92591L18.9676 8.8501C18.9676 9.83118 18.5745 10.5112 17.4376 10.5112C16.9616 10.5149 16.4899 10.4283 16.0469 10.2563V11.565C16.5665 11.7422 17.1129 11.8283 17.6618 11.8205C19.5185 11.8205 20.3107 10.5708 20.3107 8.7602V1.92591H18.9642ZM62.9706 2.68591V4.27867H61.7579V5.46912H62.9753V9.41655C62.9753 10.8089 63.7543 11.7507 65.3556 11.7507C65.649 11.7524 65.9407 11.712 66.2226 11.6317V10.3907C65.9576 10.4525 65.687 10.4879 65.4151 10.4959C64.6226 10.4959 64.2333 10.0474 64.2265 9.38905V5.46215H66.2158V4.27232H64.2265V2.68591H62.9706ZM96.3831 4.11749C94.1087 4.11749 92.8524 5.73228 92.8524 7.99194C92.8524 10.2869 94.0781 11.902 96.8767 11.902C97.6396 11.902 98.5839 11.7862 99.1972 11.4552V10.2648C98.4677 10.5318 97.6981 10.6689 96.9226 10.6694C95.1574 10.6694 94.3346 9.84651 94.1548 8.5747H99.6132V7.99194C99.6132 5.7186 98.6874 4.11749 96.3831 4.11749ZM32.8908 4.12279C30.7963 4.12279 29.7493 5.90267 29.7493 8.01207C29.7493 10.2119 30.7523 11.902 32.7413 11.902C33.8925 11.902 34.79 11.3939 35.2696 10.4061L35.2711 11.7524H36.5583V4.27234H35.2711V5.58801C34.8206 4.61548 33.9824 4.12279 32.8909 4.12279H32.8908ZM52.3247 4.12279C50.0805 4.12279 48.7645 5.75314 48.7645 7.99683C48.7645 10.241 50.0957 11.9073 52.3247 11.9073C54.5536 11.9073 55.8554 10.241 55.8554 7.99683C55.8554 5.75314 54.5684 4.12279 52.3247 4.12279ZM82.8288 4.12279C80.7341 4.12279 79.6872 5.90267 79.6872 8.01207C79.6872 10.2119 80.6903 11.902 82.6792 11.902C83.8303 11.902 84.7277 11.3939 85.2073 10.4061L85.2089 11.7524H86.4962V4.27234H85.2089V5.58801C84.7583 4.61548 83.9202 4.12279 82.8288 4.12279ZM28.9758 4.15812C27.689 4.15639 26.9988 4.76054 26.5924 5.58801V4.27234H25.3359V11.7575H26.5924V7.33731C26.5924 5.75302 27.5954 5.25326 29.241 5.42303V4.16658C29.1498 4.16095 29.0615 4.15824 28.9758 4.15814V4.15812ZM92.0786 4.15812C90.7919 4.15639 90.102 4.76054 89.6954 5.58801V4.27234H88.4388V11.7575H89.6954V7.33731C89.6954 5.75302 90.6985 5.25326 92.3441 5.42303V4.16658C92.2529 4.16095 92.1645 4.15824 92.0786 4.15814V4.15812ZM66.5828 4.27234L69.3352 11.7524H70.9808L72.2848 8.13326L72.965 5.82915L73.6449 8.13326L74.9322 11.7524H76.5776L79.3302 4.27234H77.9088L75.7527 10.6149L73.5683 4.27234H72.3408L70.1579 10.6149L68.0042 4.27234H66.5828ZM22.106 4.27407V11.7539H23.3924V4.27407H22.106ZM96.3201 5.29722C97.6057 5.29722 98.2343 6.0909 98.3095 7.4816H94.1396V7.47338C94.2738 6.17622 94.9622 5.29046 96.3201 5.29723V5.29722ZM33.2293 5.31266C34.3277 5.31266 35.2696 6.04555 35.2696 7.70646V8.31141C35.2696 9.97161 34.2383 10.7047 33.0867 10.7054C31.7535 10.7054 31.0363 9.80735 31.0295 8.00513C31.0295 6.26963 31.7772 5.31266 33.2293 5.31266ZM83.1672 5.31266C84.2655 5.31266 85.2073 6.04555 85.2073 7.70646V8.31141C85.2073 9.97142 84.1763 10.7045 83.0244 10.7054C81.6914 10.7054 80.969 9.80745 80.969 8.0121C80.969 6.2766 81.722 5.32633 83.1672 5.31266ZM52.3247 5.32619C53.9106 5.32619 54.599 6.57599 54.599 7.99688C54.599 9.4183 53.9243 10.7054 52.3247 10.7054C50.7251 10.7054 50.021 9.4183 50.021 7.99688H50.0273C50.0273 6.57599 50.7383 5.32619 52.3247 5.32619Z" fill="#253858"/>
<path d="M12.6908 6.47538L7.14828 0.932884L6.61111 0.396118L0.53186 6.47538C0.33313 6.67466 0.33313 6.99725 0.53186 7.19611L4.34359 11.0077L6.61111 13.2758L12.6908 7.19611C12.8897 6.99725 12.8897 6.67466 12.6908 6.47538ZM6.61111 8.73966L4.70735 6.83603L6.61111 4.9317L8.51529 6.83603L6.61111 8.73966Z" fill="#2684FF"/>
<path d="M6.61771 4.9317C5.37133 3.68478 5.36496 1.66526 6.60445 0.411011L2.4375 4.57635L4.70556 6.84442L6.61771 4.9317Z" fill="url(#paint0_linear_1_2278)"/>
<path d="M8.52665 6.83057L6.61719 8.73962C7.21893 9.34081 7.55736 10.1568 7.55736 11.0077C7.55736 11.8585 7.21893 12.674 6.61719 13.2758L10.7942 9.09863L8.52665 6.83057Z" fill="url(#paint1_linear_1_2278)"/>
</g>
<defs>
<linearGradient id="paint0_linear_1_2278" x1="5.79938" y1="3.48426" x2="3.61899" y2="5.66411" gradientUnits="userSpaceOnUse">
<stop stop-color="#0052CC"/>
<stop offset="1" stop-color="#2684FF"/>
</linearGradient>
<linearGradient id="paint1_linear_1_2278" x1="7.45907" y1="10.1664" x2="9.6351" y2="7.99036" gradientUnits="userSpaceOnUse">
<stop stop-color="#0052CC"/>
<stop offset="1" stop-color="#2684FF"/>
</linearGradient>
<clipPath id="clip0_1_2278">
<rect width="100" height="13.6719" fill="white"/>
</clipPath>
</defs>
</svg>

<svg xmlns="http://www.w3.org/2000/svg" width="457.143" height="64" fill="none" viewBox="0 0 100 14"><g clip-path="url(#a)"><path fill="#253858" d="M60.25 1.122c-1.601 0-2.38.944-2.38 2.334v.816h-1.212v1.19h1.217v6.29h1.256v-6.29h1.93v-1.19h-1.93l-.011-.779c0-.673.397-1.137 1.19-1.137.27-.001.541.024.807.075v-1.19a3.097 3.097 0 0 0-.867-.12Zm-37.577.277a.84.84 0 0 0-.807.899.897.897 0 1 0 1.795 0 .838.838 0 0 0-.897-.897.848.848 0 0 0-.091-.002Zm21.457.376c-2.29 0-3.456 1.132-3.456 2.662 0 1.615.991 2.378 3.201 2.917 1.87.45 2.409.911 2.409 1.78s-.56 1.452-2.04 1.452c-1.3 0-2.707-.344-3.62-.823v1.376c.764.39 1.646.763 3.547.763 2.44 0 3.456-1.153 3.466-2.858 0-1.771-1.167-2.438-3.246-2.962-1.735-.433-2.364-.838-2.364-1.645 0-.898.764-1.346 2.05-1.346a6.033 6.033 0 0 1 3.06.748V2.492c-.673-.377-1.585-.717-3.007-.717Zm-25.166.15.004 6.925c0 .981-.393 1.661-1.53 1.661a3.76 3.76 0 0 1-1.391-.255v1.309c.52.177 1.066.263 1.615.255 1.857 0 2.649-1.25 2.649-3.06V1.926h-1.347Zm44.007.76V4.28h-1.213v1.19h1.217v3.948c0 1.392.78 2.334 2.38 2.334.294.001.586-.039.868-.12v-1.24a4.085 4.085 0 0 1-.808.105c-.792 0-1.182-.449-1.189-1.107V5.462h1.99v-1.19h-1.99V2.686h-1.255Zm33.412 1.432c-2.274 0-3.53 1.615-3.53 3.875 0 2.295 1.225 3.91 4.024 3.91.763 0 1.707-.116 2.32-.447v-1.19a6.63 6.63 0 0 1-2.274.404c-1.766 0-2.588-.822-2.768-2.094h5.458v-.583c0-2.273-.926-3.875-3.23-3.875Zm-63.492.006c-2.095 0-3.142 1.78-3.142 3.89 0 2.199 1.003 3.889 2.992 3.889 1.151 0 2.049-.508 2.529-1.496l.001 1.346h1.287v-7.48h-1.287v1.316c-.45-.973-1.289-1.465-2.38-1.465Zm19.434 0c-2.245 0-3.56 1.63-3.56 3.874s1.33 3.91 3.56 3.91c2.229 0 3.53-1.666 3.53-3.91s-1.287-3.874-3.53-3.874Zm30.504 0c-2.095 0-3.142 1.78-3.142 3.89 0 2.199 1.003 3.889 2.992 3.889 1.151 0 2.049-.508 2.528-1.496l.002 1.346h1.287v-7.48H85.21v1.316c-.45-.973-1.289-1.465-2.38-1.465Zm-53.853.035c-1.287-.002-1.977.603-2.384 1.43V4.272h-1.256v7.486h1.256v-4.42c0-1.585 1.003-2.085 2.649-1.915V4.167a4.384 4.384 0 0 0-.265-.009Zm63.103 0c-1.287-.002-1.977.603-2.384 1.43V4.272H88.44v7.486h1.256v-4.42c0-1.585 1.004-2.085 2.65-1.915V4.167a4.39 4.39 0 0 0-.266-.009Zm-25.496.114 2.752 7.48h1.646l1.304-3.619.68-2.304.68 2.304 1.287 3.62h1.646l2.752-7.48H77.91l-2.156 6.342-2.185-6.343h-1.227l-2.183 6.343-2.154-6.343h-1.421Zm-44.477.002v7.48h1.286v-7.48h-1.286ZM96.32 5.297c1.286 0 1.914.794 1.99 2.185h-4.17v-.009c.134-1.297.822-2.183 2.18-2.176Zm-63.09.016c1.098 0 2.04.733 2.04 2.393v.605c0 1.66-1.032 2.394-2.183 2.394-1.334 0-2.05-.898-2.058-2.7 0-1.735.748-2.692 2.2-2.692Zm49.937 0c1.099 0 2.04.733 2.04 2.393v.605c0 1.66-1.03 2.393-2.183 2.394-1.333 0-2.055-.898-2.055-2.693 0-1.735.753-2.686 2.198-2.7Zm-30.842.013c1.586 0 2.274 1.25 2.274 2.67 0 1.422-.675 2.71-2.274 2.71-1.6 0-2.304-1.288-2.304-2.71h.006c0-1.42.711-2.67 2.298-2.67Z"/><path fill="#2684FF" d="M12.69 6.475 7.149.933 6.611.396l-6.08 6.08a.51.51 0 0 0 0 .72l3.813 3.812 2.267 2.268 6.08-6.08a.51.51 0 0 0 0-.72ZM6.612 8.74 4.707 6.836l1.904-1.904 1.904 1.904L6.611 8.74Z"/><path fill="url(#b)" d="M6.618 4.932A3.206 3.206 0 0 1 6.604.41L2.437 4.576l2.269 2.268 1.912-1.912Z"/><path fill="url(#c)" d="m8.527 6.83-1.91 1.91a3.206 3.206 0 0 1 0 4.536l4.177-4.177L8.527 6.83Z"/></g><defs><linearGradient id="b" x1="5.799" x2="3.619" y1="3.484" y2="5.664" gradientUnits="userSpaceOnUse"><stop stop-color="#0052CC"/><stop offset="1" stop-color="#2684FF"/></linearGradient><linearGradient id="c" x1="7.459" x2="9.635" y1="10.166" y2="7.99" gradientUnits="userSpaceOnUse"><stop stop-color="#0052CC"/><stop offset="1" stop-color="#2684FF"/></linearGradient><clipPath id="a"><path fill="#fff" d="M0 0h100v13.672H0z"/></clipPath></defs></svg>
